X:1
T:Title
%%score { ( 1 3 ) | ( 2 4 ) }
L:1/8
M:4/4
K:Eb
V:1 treble nm="Grand Piano"
V:3 treble 
V:2 bass 
V:4 bass 
V:1
 z4 z2[Q:1/4=100] [GB]2 | [Ge]3 [GB] [GB]2 B2 | B3 A A2 F2 | G2 A2 G2 B2 |[M:3/4] F6 |[M:1/4] B2 | %6
[M:4/4] [Ge]3 [GB] [GB]2 [GB]2 | B3 A A2 A2 | A4 z4 |[M:3/4] E6 |] %10
V:2
 z4 z2 [E,B,]2 | [E,B,]3 [E,B,] [E,B,]2 [G,B,E]2 | [F,B,D]3 [F,B,D] [F,B,D]2 [A,B,D]2 | %3
 [G,B,E]2 [F,B,D]2 [E,B,E]2[K:treble] [G,B,E]2 |[M:3/4] [B,D]6 |[M:1/4] [B,DA]2 | %6
[M:4/4][K:bass] [E,_D]3 [E,D] [E,D]2 [=E,D]2 | [F,CF]3 [F,CF] [F,CF]2 [F,=B,E]2 | %8
 [B,D]3 [F,B,D] [B,D]2 [B,,A,]2 |[M:3/4] [E,G,]6 |] %10
V:3
 x8 | x8 | x8 | x8 |[M:3/4] x6 |[M:1/4] x2 |[M:4/4] x8 | x8 | z2 =E,A G2 [DF]2 |[M:3/4] x6 |] %10
V:4
 x8 | x8 | x8 | x6[K:treble] x2 |[M:3/4] x6 |[M:1/4] x2 |[M:4/4][K:bass] x8 | x8 | F,2 z2 z4 | %9
[M:3/4] x6 |] %10

